svg/mullvad-browser.svg

<svg xmlns="http://www.w3.org/2000/svg" width="48" height="48" fill="none" viewBox="0 0 48 48"><g clip-path="url(#clip0_279_790)"><path fill="url(#paint0_linear_279_790)" d="M0 0H48V48H0V0Z"/><path fill="url(#paint1_radial_279_790)" d="M14.25 6.32812H7.125V41.4844H14.25V23.1094L19.125 32.3906H28.875L33.75 23.1094V41.4844H40.875V6.32812H33.75L24 24.7969L14.25 6.32812Z"/><path fill="url(#paint2_linear_279_790)" d="M14.25 10.0781H7.125V41.4844H14.25V23.1094L19.125 32.3906H28.875L33.75 23.1094V41.4844H40.875V10.0781H33.75L24 28.5469L14.25 10.0781Z"/><path fill="url(#paint3_linear_279_790)" d="M14.25 13.3594H7.125V41.4844H14.25V23.1094L19.125 32.3906H28.875L33.75 23.1094V41.4844H40.875V13.3594H33.75L24 31.7344L14.25 13.3594Z"/></g><defs><linearGradient id="paint0_linear_279_790" x1="24" x2="24" y1="-1.734" y2="48" gradientUnits="userSpaceOnUse"><stop stop-color="#205C9D"/><stop offset=".655" stop-color="#05101B"/></linearGradient><radialGradient id="paint1_radial_279_790" cx="0" cy="0" r="1" gradientTransform="translate(24 28.6406) rotate(-90) scale(23.1562 23.1322)" gradientUnits="userSpaceOnUse"><stop stop-color="#88608C"/><stop offset=".693" stop-color="#8F7664"/><stop offset="1" stop-color="#907029"/></radialGradient><linearGradient id="paint2_linear_279_790" x1="48.153" x2="7.3" y1="13.938" y2="34.281" gradientUnits="userSpaceOnUse"><stop stop-color="#D59C14"/><stop offset=".29" stop-color="#F8A912"/><stop offset="1" stop-color="#FDDF00"/></linearGradient><linearGradient id="paint3_linear_279_790" x1="66.251" x2="4.675" y1="9.465" y2="36.249" gradientUnits="userSpaceOnUse"><stop stop-color="#D59C14"/><stop offset=".07" stop-color="#F8A912"/><stop offset="1" stop-color="#FDDF00"/></linearGradient><clipPath id="clip0_279_790"><rect width="48" height="48" fill="#fff" rx="4.688"/></clipPath></defs></svg>

<svg xmlns="http://www.w3.org/2000/svg" width="48" height="48" fill="none"><g clip-path="url(#a)"><path fill="url(#b)" d="M0 0h48v48H0z"/><path fill="url(#c)" d="M14.25 6.328H7.125v35.156h7.125V23.11l4.875 9.282h9.75l4.875-9.282v18.375h7.125V6.328H33.75L24 24.797z"/><path fill="url(#d)" d="M14.25 10.078H7.125v31.406h7.125V23.11l4.875 9.282h9.75l4.875-9.282v18.375h7.125V10.078H33.75L24 28.547z"/><path fill="url(#e)" d="M14.25 13.36H7.125v28.124h7.125V23.11l4.875 9.282h9.75l4.875-9.282v18.375h7.125V13.36H33.75L24 31.734z"/></g><defs><linearGradient id="b" x1="24" x2="24" y1="-1.734" y2="48" gradientUnits="userSpaceOnUse"><stop stop-color="#205C9D"/><stop offset=".655" stop-color="#05101B"/></linearGradient><linearGradient id="d" x1="48.153" x2="7.3" y1="13.938" y2="34.281" gradientUnits="userSpaceOnUse"><stop stop-color="#D59C14"/><stop offset=".29" stop-color="#F8A912"/><stop offset="1" stop-color="#FDDF00"/></linearGradient><linearGradient id="e" x1="66.251" x2="4.675" y1="9.465" y2="36.249" gradientUnits="userSpaceOnUse"><stop stop-color="#D59C14"/><stop offset=".07" stop-color="#F8A912"/><stop offset="1" stop-color="#FDDF00"/></linearGradient><radialGradient id="c" cx="0" cy="0" r="1" gradientTransform="matrix(0 -23.1562 23.1322 0 24 28.64)" gradientUnits="userSpaceOnUse"><stop stop-color="#88608C"/><stop offset=".693" stop-color="#8F7664"/><stop offset="1" stop-color="#907029"/></radialGradient><clipPath id="a"><rect width="48" height="48" fill="#fff" rx="4.688"/></clipPath></defs></svg>
